src/img/icons/icon-vk.svg

<?xml version="1.0" encoding="UTF-8"?>
<svg width="36px" height="36px" viewBox="0 0 36 36" version="1.1" xmlns="http://www.w3.org/2000/svg" xmlns:xlink="http://www.w3.org/1999/xlink">
    <!-- Generator: sketchtool 53.2 (72643) - https://sketchapp.com -->
    <title>F29ECC1D-59DA-411D-B61F-8DD17FCFAB31</title>
    <desc>Created with sketchtool.</desc>
    <g id="Header-&amp;-Footer" stroke="none" stroke-width="1" fill="none" fill-rule="evenodd">
        <g id="Footer/footer-desktop-1280" transform="translate(-194.000000, -261.000000)" fill-rule="nonzero">
            <g id="icon/social/ico-social-vk-ghost" transform="translate(194.000000, 261.000000)">
                <circle id="Oval-path" stroke="#4489FF" stroke-width="1" cx="18" cy="18" r="17.5"></circle>
                <path d="M28.4952367,13.8802368 C28.6482412,13.3728947 28.4952367,13 27.767348,13 L25.3605362,13 C24.7485183,13 24.4664056,13.3220921 24.3134011,13.6771974 C24.3134011,13.6771974 23.0895373,16.6456447 21.3556012,18.57375 C20.7946422,19.1318947 20.539692,19.3096184 20.2335112,19.3096184 C20.0806786,19.3096184 19.8592519,19.1318947 19.8592519,18.6245526 L19.8592519,13.8802368 C19.8592519,13.2712895 19.6814917,13 19.1715914,13 L15.3894585,13 C15.0071192,13 14.7770968,13.2825789 14.7770968,13.5504474 C14.7770968,14.12775 15.6438929,14.2608289 15.7332887,15.8844605 L15.7332887,19.4108816 C15.7332887,20.1842105 15.593006,20.3243026 15.286997,20.3243026 C14.4710878,20.3243026 12.4863276,17.3428553 11.3092247,13.9310395 C11.0785146,13.2678684 10.8471168,13 10.2320045,13 L7.82519264,13 C7.13753211,13 7,13.3220921 7,13.6771974 C7,14.3114605 7.81590922,17.4574605 10.7991525,21.6183158 C12.7880387,24.4596711 15.5902553,26 18.1401006,26 C19.6699734,26 19.8592519,25.6578947 19.8592519,25.0686184 L19.8592519,22.9210526 C19.8592519,22.2368421 20.0041764,22.1003421 20.4886332,22.1003421 C20.845529,22.1003421 21.4575469,22.2778947 22.885474,23.6478553 C24.5172924,25.2714868 24.7865115,26 25.7043664,26 L28.1111783,26 C28.7988388,26 29.1426691,25.6578947 28.944279,24.98275 C28.7273221,24.3098289 27.9480308,23.3336316 26.9143051,22.1762895 C26.353346,21.5167105 25.5118215,20.8065 25.2568713,20.4512237 C24.8998036,19.9946842 25.0019212,19.7914737 25.2568713,19.3855658 C25.2568713,19.3855658 28.1892277,15.2756842 28.4952367,13.8802368" id="Fill-1" fill="#4489FF"></path>
            </g>
        </g>
    </g>
</svg>

<svg width="36" height="36" xmlns="http://www.w3.org/2000/svg"><g fill-rule="nonzero" fill="none"><circle stroke="#4489FF" cx="18" cy="18" r="17.5"/><path d="M28.495 13.88c.153-.507 0-.88-.728-.88h-2.406c-.612 0-.895.322-1.048.677 0 0-1.223 2.969-2.957 4.897-.561.558-.816.736-1.122.736-.153 0-.375-.178-.375-.685V13.88c0-.609-.178-.88-.687-.88h-3.783c-.382 0-.612.283-.612.55 0 .578.867.71.956 2.334v3.527c0 .773-.14.913-.446.913-.816 0-2.8-2.981-3.978-6.393-.23-.663-.462-.931-1.077-.931H7.825c-.687 0-.825.322-.825.677 0 .634.816 3.78 3.8 7.941C12.787 24.46 15.59 26 18.14 26c1.53 0 1.72-.342 1.72-.931V22.92c0-.684.144-.82.629-.82.357 0 .969.177 2.396 1.547C24.517 25.27 24.787 26 25.705 26h2.406c.688 0 1.032-.342.833-1.017-.217-.673-.996-1.65-2.03-2.807-.56-.66-1.402-1.37-1.657-1.725-.357-.456-.255-.66 0-1.065 0 0 2.932-4.11 3.238-5.506" fill="#4489FF"/></g></svg>
